X:1
%
T:Humours of Glenflesk, The
M:6/8
L:1/8
R:Jig
B:Joyce - Old Irish Folk Music and Songs, No. 436 (1909)
Z:AK/Fiddler's Companion
K:G
B2A A3|B2G G3|B2A A2d|efg dBG|
B2A A3|B2G GBA|GFE DEF|G2g dBG:|
|:gag fgf|efe def|gfg abc'|bag fed|
bag agf|gfe fed|efg dfg|B2g dBG:|

